neru-light-classic/32x32/apps/Ri-li.svg

<?xml version="1.0" encoding="UTF-8" standalone="no"?>
<svg
   xmlns:dc="http://purl.org/dc/elements/1.1/"
   xmlns:cc="http://creativecommons.org/ns#"
   xmlns:rdf="http://www.w3.org/1999/02/22-rdf-syntax-ns#"
   xmlns:svg="http://www.w3.org/2000/svg"
   xmlns="http://www.w3.org/2000/svg"
   xmlns:sodipodi="http://sodipodi.sourceforge.net/DTD/sodipodi-0.dtd"
   xmlns:inkscape="http://www.inkscape.org/namespaces/inkscape"
   width="32"
   height="32"
   version="1"
   id="svg14"
   sodipodi:docname="Ri-li.svg"
   inkscape:version="0.92.1 r">
  <metadata
     id="metadata20">
    <rdf:RDF>
      <cc:Work
         rdf:about="">
        <dc:format>image/svg+xml</dc:format>
        <dc:type
           rdf:resource="http://purl.org/dc/dcmitype/StillImage" />
      </cc:Work>
    </rdf:RDF>
  </metadata>
  <defs
     id="defs18" />
  <sodipodi:namedview
     pagecolor="#ffffff"
     bordercolor="#666666"
     borderopacity="1"
     objecttolerance="10"
     gridtolerance="10"
     guidetolerance="10"
     inkscape:pageopacity="0"
     inkscape:pageshadow="2"
     inkscape:window-width="640"
     inkscape:window-height="480"
     id="namedview16"
     showgrid="false"
     inkscape:zoom="9.5"
     inkscape:cx="7.2065767"
     inkscape:cy="3.0137238"
     inkscape:current-layer="svg14" />
  <rect
     style="opacity:1;fill:#52845f;fill-opacity:1;fill-rule:evenodd;stroke:none;stroke-width:1.03534329;stroke-linecap:round;stroke-linejoin:bevel;stroke-miterlimit:4;stroke-dasharray:none;stroke-dashoffset:0;stroke-opacity:1"
     id="rect4497-6-6"
     width="28.203388"
     height="28.203388"
     x="1.8983059"
     y="1.8983059"
     ry="5.575182" />
  <path
     style="opacity:1;fill:#52845f;fill-opacity:1;fill-rule:evenodd;stroke:none;stroke-width:1.03534329;stroke-linecap:round;stroke-linejoin:bevel;stroke-miterlimit:4;stroke-dasharray:none;stroke-dashoffset:0;stroke-opacity:1"
     d="M 23 30.101562 L 23 18.291016 L 23 14.685547 L 23 13.1875 L 9 13.1875 L 9 17.1875 L 17.599609 17.1875 C 17.986193 17.187538 18.336499 17.344312 18.589844 17.597656 C 18.843188 17.851001 18.999961 18.199354 19 18.585938 L 19 30.101562 L 23 30.101562 z "
     id="path4521" />
  <path
     style="opacity:1;fill:#fbc295;fill-opacity:1;fill-rule:evenodd;stroke:none;stroke-width:1.03534329;stroke-linecap:round;stroke-linejoin:bevel;stroke-miterlimit:4;stroke-dasharray:none;stroke-dashoffset:0;stroke-opacity:1"
     d="M 26 29.804688 L 26 18.291016 L 26 14.685547 L 26 11.882812 C 26 11.421276 25.803214 10.998239 25.492188 10.689453 C 25.181161 10.380667 24.75609 10.1875 24.300781 10.1875 L 7.6992188 10.1875 C 7.2439107 10.1875 6.8188388 10.380667 6.5078125 10.689453 C 6.1967862 10.998239 6 11.421276 6 11.882812 L 6 18.490234 C 6 18.951771 6.1967776 19.379262 6.5078125 19.689453 C 6.8188474 19.999644 7.2439453 20.19312 7.6992188 20.1875 L 16 20.1875 L 16 30.101562 L 19 30.101562 L 19 18.585938 C 18.999961 18.199354 18.843188 17.851001 18.589844 17.597656 C 18.336499 17.344312 17.986193 17.187538 17.599609 17.1875 L 9 17.1875 L 9 13.1875 L 23 13.1875 L 23 14.685547 L 23 18.291016 L 23 30.101562 L 24.527344 30.101562 C 25.050478 30.101562 25.520568 29.938195 26 29.804688 z "
     id="path4519" />
  <path
     style="opacity:1;fill:#52845f;fill-opacity:1;fill-rule:evenodd;stroke:none;stroke-width:1.03534329;stroke-linecap:round;stroke-linejoin:bevel;stroke-miterlimit:4;stroke-dasharray:none;stroke-dashoffset:0;stroke-opacity:1"
     d="M 7.4726562 1.8984375 C 4.3840054 1.8984375 1.8984375 4.3840054 1.8984375 7.4726562 L 1.8984375 24.527344 C 1.8984375 27.615995 4.3840054 30.101562 7.4726562 30.101562 L 16 30.101562 L 16 20.1875 L 7.6992188 20.1875 C 7.2439453 20.19312 6.8188474 19.999644 6.5078125 19.689453 C 6.1967776 19.379262 6 18.951771 6 18.490234 L 6 11.882812 C 6 11.421276 6.1967862 10.998239 6.5078125 10.689453 C 6.8188388 10.380667 7.2439107 10.1875 7.6992188 10.1875 L 24.300781 10.1875 C 24.75609 10.1875 25.181161 10.380667 25.492188 10.689453 C 25.803214 10.998239 26 11.421276 26 11.882812 L 26 14.685547 L 26 18.291016 L 26 29.804688 C 28.351195 29.149951 30.101562 27.09286 30.101562 24.527344 L 30.101562 7.4726562 C 30.101563 4.3840054 27.615995 1.8984375 24.527344 1.8984375 L 7.4726562 1.8984375 z "
     id="rect4497-6" />
</svg>

<svg xmlns="http://www.w3.org/2000/svg" width="32" height="32" version="1"><rect width="28.203" height="28.203" x="1.898" y="1.898" ry="5.575" fill="#52845f" fill-rule="evenodd"/><path d="M23 30.102V13.188H9v4h8.6a1.397 1.397 0 0 1 1.4 1.398v11.516h4z" fill="#52845f" fill-rule="evenodd"/><path d="M26 29.805V11.883c0-.462-.197-.885-.508-1.194a1.7 1.7 0 0 0-1.191-.502H7.699a1.7 1.7 0 0 0-1.191.502A1.685 1.685 0 0 0 6 11.883v6.607c0 .462.197.89.508 1.2.31.31.736.503 1.191.497H16v9.915h3V18.586a1.397 1.397 0 0 0-1.4-1.398H9v-4h14V30.1h1.527c.523 0 .994-.163 1.473-.296z" fill="#fbc295" fill-rule="evenodd"/><path d="M7.473 1.898a5.561 5.561 0 0 0-5.575 5.575v17.054a5.561 5.561 0 0 0 5.575 5.575H16v-9.915H7.7a1.667 1.667 0 0 1-1.192-.498A1.701 1.701 0 0 1 6 18.49v-6.607c0-.462.197-.885.508-1.194a1.7 1.7 0 0 1 1.191-.502h16.602a1.7 1.7 0 0 1 1.191.502c.311.31.508.732.508 1.194V29.805c2.351-.655 4.102-2.712 4.102-5.278V7.473a5.561 5.561 0 0 0-5.575-5.575H7.473z" fill="#52845f" fill-rule="evenodd"/></svg>
